svg/fluentui-system-icons/ic_fluent_video_background_effect_horizontal_28_regular.svg

<svg width="28" height="28" viewBox="0 0 28 28" fill="none" xmlns="http://www.w3.org/2000/svg">
<path d="M4.75386 4H23.2505C24.3191 4 25.2454 4.60958 25.7006 5.5H2.30371C2.75889 4.60958 3.68518 4 4.75386 4ZM9.75606 10H2.00391V8.5H10.6458C10.2585 8.93282 9.95361 9.44107 9.75606 10ZM9.85295 13.25H2.00391V14.75H10.8875C10.4479 14.3288 10.0935 13.8193 9.85295 13.25ZM17.1125 14.75C17.5521 14.3288 17.9065 13.8193 18.147 13.25H26V14.75H17.1125ZM7.04148 18H2.00391V19.5H7V18.5C7 18.3296 7.0142 18.1626 7.04148 18ZM7 22.5H2.30371C2.75625 23.3853 3.6745 23.993 4.73537 24H7V22.5ZM21 24H23.269C24.3299 23.993 25.2481 23.3853 25.7007 22.5H21V24ZM21 19.5H26V18H20.9585C20.9858 18.1626 21 18.3296 21 18.5V19.5ZM18.2439 10C18.0464 9.44107 17.7415 8.93282 17.3542 8.5H26V10H18.2439ZM9.5 18.5C9.5 18.2239 9.72386 18 10 18H18C18.2761 18 18.5 18.2239 18.5 18.5V24H20V18.5C20 17.3954 19.1046 16.5 18 16.5H10C8.89543 16.5 8 17.3954 8 18.5V24H9.5V18.5ZM10.5 11.5C10.5 9.567 12.067 8 14 8C15.933 8 17.5 9.567 17.5 11.5C17.5 13.433 15.933 15 14 15C12.067 15 10.5 13.433 10.5 11.5ZM14 9.5C12.8954 9.5 12 10.3954 12 11.5C12 12.6046 12.8954 13.5 14 13.5C15.1046 13.5 16 12.6046 16 11.5C16 10.3954 15.1046 9.5 14 9.5Z" fill="#212121"/>
</svg>

<svg xmlns="http://www.w3.org/2000/svg" width="28" height="28"><path d="M4.754 4H23.25a2.75 2.75 0 0 1 2.45 1.5H2.304A2.75 2.75 0 0 1 4.754 4Zm5.002 6H2.004V8.5h8.642a4.498 4.498 0 0 0-.89 1.5Zm.097 3.25h-7.85v1.5h8.884a4.51 4.51 0 0 1-1.034-1.5Zm7.26 1.5a4.51 4.51 0 0 0 1.034-1.5H26v1.5h-8.887ZM7.04 18H2.004v1.5H7v-1c0-.17.014-.337.041-.5ZM7 22.5H2.304A2.75 2.75 0 0 0 4.735 24H7v-1.5ZM21 24h2.269a2.75 2.75 0 0 0 2.432-1.5H21V24Zm0-4.5h5V18h-5.041c.027.163.041.33.041.5v1ZM18.244 10a4.498 4.498 0 0 0-.89-1.5H26V10h-7.756ZM9.5 18.5a.5.5 0 0 1 .5-.5h8a.5.5 0 0 1 .5.5V24H20v-5.5a2 2 0 0 0-2-2h-8a2 2 0 0 0-2 2V24h1.5v-5.5Zm1-7a3.5 3.5 0 1 1 7 0 3.5 3.5 0 0 1-7 0Zm3.5-2a2 2 0 1 0 0 4 2 2 0 0 0 0-4Z"/></svg>
